X:1
T:3 Lieder
T:Verlust
T:3 Lieder
T:Fanny (Mendelssohn) Hensel
T:Heinrich Heine
T:2. Verlust
T:(originally published as Op.9, No.10 by Felix Mendelssohn)
T:Creative Commons copyright waiver (CC0 1.0 Universal)
T:Creative Commons copyright waiver (CC0 1.0 Universal)
C:Fanny (Mendelssohn) Hensel
Z:Heinrich Heine
Z:Creative Commons copyright waiver (CC0 1.0 Universal)
L:1/8
Q:1/4=144
M:4/4
K:F
V:1 treble nm="Singstimme\nVoice"
V:1
"^Allegro con fuoco" z4 z2 (AF) | E2 A F E2 A d | d4 ^c2 A2 | B6 B2 | A2 G A ^F2 (d>B) | %5
w: Und *|wüss- ten's die Blu- men, die|klei- nen, wie|tief ver-|wun- det mein Herz, sie *|
 A2 (d>B) A2 (dg) | g4 ^f2 d2 | =f4- (fd) (c=B) | c4- (cA) (_BG) | F2 z2 z2 A2 | A2 B A A2 B2 | %11
w: wür- den * mit mir *|wei- nen, zu|hei- * * len *|mei- * * nen *|Schmerz. Und|wüss- ten's die Nach- ti-|
 (c3 A) F2 z2 | F2 _G F F2 G F | F2 z2 z4 | z2 A2 B2 A2 | B2 =B3/2 B/ c2 ^c3/2 A/ | (defe d^cdB | %17
w: gal- * len,|wie ich so trau- rig und|krank,|sie lies- sen|fröh- lich er- schal- len er-|qui- * * * * * * *|
 A^G) (A=G) F3 E | D2 z2 z4 | z8 | z4 z2 (A>F) | E2 (A>F) E2 (Ad) | d4 ^c2 A2 | B6 B2 | %24
w: * * cken- * den Ge-|sang.||Und *|wüss- ten * sie mein *|We- he, die|gold'- nen|
 A3 G ^F2 (d>B) | A2 d3/2 B/ A2 (dg) | g4 ^f2 d2 | =f4- (fd) (c=B) | c4- (cA) (_BG) | F2 z2 z2 A2 | %30
w: Ster- ne- lein, sie *|kä- men aus ih- rer *|Hö- he und|sprä- * * chen *|Trost _ _ mir *|ein. Die|
 A2 (BA) A2 A B | (c3 A) F2 (_G>F) | F2 (_G>F) F2 _e d | d2 z2 z4 | z2 A2 B2 A2 | B2 =B2 c2 ^c A | %36
w: al- le * kön- nen's nicht|wis- * sen, nur *|Ei- ner * kennt mei- nen|Schmerz,|er hat ja|selbst zer- ris- sen, zer-|
 (defe d^cdB | A^G) (A=G) F3 E | D2 z2 z4 | z8 | z8 |] %41
w: ris- * * * * * * *|* * sen * mir das|Herz.|||

